inst/assets/svg/wi-moon-alt-waxing-crescent-5.svg

<?xml version="1.0" encoding="UTF-8"?>
<svg xmlns="http://www.w3.org/2000/svg" xmlns:xlink="http://www.w3.org/1999/xlink" width="30pt" height="30pt" viewBox="0 0 30 30" version="1.1">
<g id="surface406">
<path style=" stroke:none;fill-rule:nonzero;fill:rgb(0%,0%,0%);fill-opacity:1;" d="M 3.738281 14.441406 C 3.738281 12.921875 4.039063 11.460938 4.628906 10.070313 C 5.21875 8.679688 6.03125 7.488281 7.03125 6.480469 C 8.03125 5.46875 9.230469 4.671875 10.621094 4.078125 C 12.011719 3.488281 13.460938 3.191406 14.988281 3.191406 C 16.519531 3.191406 17.96875 3.488281 19.359375 4.078125 C 20.75 4.671875 21.949219 5.480469 22.960938 6.480469 C 23.96875 7.480469 24.769531 8.679688 25.359375 10.070313 C 25.949219 11.460938 26.25 12.910156 26.25 14.441406 C 26.25 15.96875 25.949219 17.421875 25.359375 18.808594 C 24.769531 20.199219 23.960938 21.398438 22.960938 22.410156 C 21.960938 23.421875 20.761719 24.21875 19.359375 24.808594 C 17.960938 25.398438 16.511719 25.699219 14.988281 25.699219 C 13.46875 25.699219 12.011719 25.398438 10.621094 24.808594 C 9.230469 24.21875 8.039063 23.410156 7.03125 22.410156 C 6.019531 21.410156 5.21875 20.210938 4.628906 18.808594 C 4.039063 17.410156 3.738281 15.96875 3.738281 14.441406 Z M 15.148438 4.390625 C 16.980469 7.609375 17.890625 10.960938 17.890625 14.441406 C 17.890625 18.601563 17.011719 21.949219 15.238281 24.5 C 16.578125 24.46875 17.851563 24.179688 19.058594 23.640625 C 20.269531 23.101563 21.308594 22.371094 22.191406 21.480469 C 23.070313 20.589844 23.761719 19.53125 24.28125 18.300781 C 24.800781 17.070313 25.058594 15.789063 25.058594 14.441406 C 25.058594 12.640625 24.621094 10.980469 23.730469 9.441406 C 22.839844 7.898438 21.648438 6.691406 20.128906 5.789063 C 18.609375 4.890625 16.949219 4.421875 15.148438 4.390625 Z M 15.148438 4.390625 "/>
</g>
</svg>

<?xml version="1.0" encoding="utf-8"?>
<!-- Generator: Adobe Illustrator 22.0.1, SVG Export Plug-In . SVG Version: 6.00 Build 0)  -->
<svg version="1.1" id="Layer_1" xmlns="http://www.w3.org/2000/svg" xmlns:xlink="http://www.w3.org/1999/xlink" x="0px" y="0px"
	 viewBox="0 0 30 30" style="enable-background:new 0 0 30 30;" xml:space="preserve">
<path d="M3.74,14.44c0-1.52,0.3-2.98,0.89-4.37s1.4-2.58,2.4-3.59s2.2-1.81,3.59-2.4s2.84-0.89,4.37-0.89s2.98,0.3,4.37,0.89
	s2.59,1.4,3.6,2.4s1.81,2.2,2.4,3.59s0.89,2.84,0.89,4.37s-0.3,2.98-0.89,4.37s-1.4,2.59-2.4,3.6s-2.2,1.81-3.6,2.4
	s-2.85,0.89-4.37,0.89s-2.98-0.3-4.37-0.89s-2.58-1.4-3.59-2.4s-1.81-2.2-2.4-3.6S3.74,15.97,3.74,14.44z M15.15,4.39
	c1.83,3.22,2.74,6.57,2.74,10.05c0,4.16-0.88,7.51-2.65,10.06c1.34-0.03,2.61-0.32,3.82-0.86s2.25-1.27,3.13-2.16
	s1.57-1.95,2.09-3.18s0.78-2.51,0.78-3.86c0-1.8-0.44-3.46-1.33-5s-2.08-2.75-3.6-3.65S16.95,4.42,15.15,4.39z"/>
</svg>
